www/assets/icons/perm_device_information.svg

<svg xmlns="http://www.w3.org/2000/svg" width="24" height="24" viewBox="0 0 24 24" fill='currentColor'><path d="M13 7h-2v2h2zm0 4h-2v6h2zm4-9.99L7 1c-1.1 0-2 .9-2 2v18c0 1.1.9 2 2 2h10c1.1 0 2-.9 2-2V3c0-1.1-.9-1.99-2-1.99M17 19H7V5h10z"/></svg>

<svg width="24" height="24" viewBox="0 0 24 24" xmlns="http://www.w3.org/2000/svg" fill='currentColor'><path d="M13 7H11V9H13V7ZM13 11H11V17H13V11ZM17 1.01L7 1C5.9 1 5 1.9 5 3V21C5 22.1 5.9 23 7 23H17C18.1 23 19 22.1 19 21V3C19 1.9 18.1 1.01 17 1.01ZM17 19H7V5H17V19Z"/></svg>
